packages/blockchain-info-components/src/Images/img/bank-success.svg

<svg fill="none" height="87" viewBox="0 0 102 87" width="102" xmlns="http://www.w3.org/2000/svg" xmlns:xlink="http://www.w3.org/1999/xlink"><clipPath id="a"><path d="m62 0h40v40h-40z"/></clipPath><path d="m29.6842 46.5v21h8.5263v-21zm17.0526 0v21h8.5264v-21zm-22.7368 36h54v-9h-54zm39.7895-36v21h8.5263v-21zm-12.7895-27-27 15v6h54v-6z" fill="#0c6cf2"/><g clip-path="url(#a)"><circle cx="82" cy="20" fill="#fff" r="20"/><path d="m82 4c-8.832 0-16 7.168-16 16s7.168 16 16 16 16-7.168 16-16-7.168-16-16-16zm-3.2 24-8-8 2.256-2.256 5.744 5.728 12.144-12.144 2.256 2.272z" fill="#17ce73"/></g></svg>

<svg width="102" height="87" viewBox="0 0 102 87" fill="none" xmlns="http://www.w3.org/2000/svg">
<path d="M29.6842 46.5V67.5H38.2105V46.5H29.6842ZM46.7368 46.5V67.5H55.2632V46.5H46.7368ZM24 82.5H78V73.5H24V82.5ZM63.7895 46.5V67.5H72.3158V46.5H63.7895ZM51 19.5L24 34.5V40.5H78V34.5L51 19.5Z" fill="#0C6CF2"/>
<g clip-path="url(#clip0)">
<circle cx="82" cy="20" r="20" fill="white"/>
<path d="M82 4C73.168 4 66 11.168 66 20C66 28.832 73.168 36 82 36C90.832 36 98 28.832 98 20C98 11.168 90.832 4 82 4ZM78.8 28L70.8 20L73.056 17.744L78.8 23.472L90.944 11.328L93.2 13.6L78.8 28Z" fill="#17CE73"/>
</g>
<defs>
<clipPath id="clip0">
<rect width="40" height="40" fill="white" transform="translate(62)"/>
</clipPath>
</defs>
</svg>
